X:147
T:Killavil Fancy, The
R:reel
S:https://thesession.org/tunes/576
M:4/4
L:1/8
Z:Josh Kane
K:Gmajor
|: DGBG A2BA | GE~E2 cEGE | DGBG A2BA | GE{G}ED EFGA |
B2Bd A2BA | GE~E2 cEGE | DGBG A2BA | GE{G}ED E~E2D :|
|: GABd efge | dB~B2 dBAB | GABd efge | dBAG EG{A}GF |
GABd efge | dB~B2 d2ga | bgag egde | gedB AGEG :|

